;FLAVOR:Marlin
;TIME:4535
;Filament used: 3.09503m
;Layer height: 0.2
;MINX:76.914
;MINY:76.914
;MINZ:0.2
;MAXX:158.086
;MAXY:158.086
;MAXZ:9.6
;Generated with Cura_SteamEngine 4.12.0
M140 S50
M105
M190 S50
M104 S200
M105
M109 S200
M82 ;absolute extrusion mode
; Ender 3 Custom Start G-code
G92 E0 ; Reset Extruder
G28 ; Home all axes
G1 Z2.0 F3000 ; Move Z Axis up little to prevent scratching of Heat Bed
G1 X0.1 Y20 Z0.3 F5000.0 ; Move to start position
G1 X0.1 Y200.0 Z0.3 F1500.0 E15 ; Draw the first line
G1 X0.4 Y200.0 Z0.3 F5000.0 ; Move to side a little
G1 X0.4 Y20 Z0.3 F1500.0 E30 ; Draw the second line
G92 E0 ; Reset Extruder
G1 Z2.0 F3000 ; Move Z Axis up little to prevent scratching of Heat Bed
G1 X5 Y20 Z0.3 F5000.0 ; Move over to prevent blob squish
G92 E0
G92 E0
G1 F2700 E-5
;LAYER_COUNT:48
;LAYER:0
M107
G0 F6000 X88.978 Y88.626 Z0.2
;TYPE:SKIRT
G1 F2700 E0
G1 F1200 X89.457 Y88.159 E0.02225
G1 X89.712 Y87.918 E0.03392
G1 X90.469 Y87.227 E0.06801
G1 X90.826 Y86.911 E0.08387
G1 X91.379 Y86.436 E0.10811
G1 X91.641 Y86.219 E0.11943
G1 X92.534 Y85.503 E0.1575
G1 X92.933 Y85.194 E0.17428
G1 X93.4 Y84.844 E0.19369
G1 X93.648 Y84.663 E0.20391
G1 X94.453 Y84.094 E0.23669
G1 X94.915 Y83.778 E0.25531
G1 X95.411 Y83.448 E0.27512
G1 X95.732 Y83.244 E0.28777
G1 X96.646 Y82.683 E0.32344
G1 X97.164 Y82.376 E0.34347
G1 X97.638 Y82.104 E0.36165
G1 X97.95 Y81.932 E0.3735
G1 X98.999 Y81.376 E0.41299
G1 X99.424 Y81.161 E0.42883
G1 X99.898 Y80.928 E0.44639
G1 X100.208 Y80.782 E0.45779
G1 X101.154 Y80.353 E0.49234
G1 X101.617 Y80.151 E0.50914
G1 X102.249 Y79.888 E0.53191
G1 X102.533 Y79.775 E0.54207
G1 X103.502 Y79.406 E0.57656
G1 X103.962 Y79.239 E0.59284
G1 X104.627 Y79.009 E0.61624
G1 X104.944 Y78.906 E0.62733
G1 X106.139 Y78.537 E0.66892
G1 X106.542 Y78.422 E0.68286
G1 X107.065 Y78.278 E0.70091
G1 X107.397 Y78.192 E0.71231
G1 X108.409 Y77.947 E0.74694
G1 X108.862 Y77.844 E0.7624
G1 X109.557 Y77.697 E0.78602
G1 X109.905 Y77.63 E0.79781
G1 X111.07 Y77.426 E0.83715
G1 X111.54 Y77.353 E0.85297
G1 X112.077 Y77.276 E0.87101
G1 X112.41 Y77.234 E0.88217
G1 X113.594 Y77.102 E0.9218
G1 X114.063 Y77.059 E0.93746
G1 X114.588 Y77.017 E0.95498
G1 X114.932 Y76.995 E0.96644
G1 X116.175 Y76.936 E1.00783
G1 X116.606 Y76.923 E1.02218
G1 X117.174 Y76.914 E1.04107
G1 X117.508 Y76.914 E1.05218
G1 X118.687 Y76.932 E1.0914
G1 X119.099 Y76.945 E1.10511
G1 X119.713 Y76.973 E1.12555
G1 X120.061 Y76.995 E1.13715
G1 X121.261 Y77.089 E1.17718
G1 X121.693 Y77.131 E1.19162
G1 X122.229 Y77.189 E1.20955
G1 X122.578 Y77.232 E1.22124
G1 X123.602 Y77.376 E1.25564
G1 X124.09 Y77.452 E1.27207
G1 X124.745 Y77.564 E1.29417
G1 X125.102 Y77.632 E1.30625
G1 X126.274 Y77.875 E1.34606
G1 X126.68 Y77.966 E1.3599
G1 X127.281 Y78.109 E1.38045
G1 X127.63 Y78.198 E1.39243
G1 X128.734 Y78.5 E1.4305
G1 X129.189 Y78.634 E1.44627
G1 X129.728 Y78.799 E1.46502
G1 X130.054 Y78.904 E1.47641
G1 X131.145 Y79.277 E1.51476
G1 X131.6 Y79.442 E1.53086
G1 X132.127 Y79.64 E1.54958
G1 X132.455 Y79.769 E1.56131
G1 X133.378 Y80.15 E1.59452
G1 X133.82 Y80.34 E1.61052
G1 X134.461 Y80.627 E1.63388
G1 X134.769 Y80.772 E1.6452
G1 X135.883 Y81.316 E1.68644
G1 X136.313 Y81.537 E1.70252
G1 X136.724 Y81.754 E1.71797
G1 X137.021 Y81.916 E1.72923
G1 X137.954 Y82.446 E1.76492
G1 X138.356 Y82.682 E1.78042
G1 X138.975 Y83.059 E1.80453
G1 X139.258 Y83.238 E1.81566
G1 X140.065 Y83.766 E1.84774
G1 X140.473 Y84.042 E1.86412
G1 X141.084 Y84.469 E1.88891
G1 X141.354 Y84.665 E1.90001
G1 X142.186 Y85.287 E1.93456
G1 X142.664 Y85.656 E1.95465
G1 X143.085 Y85.992 E1.97256
G1 X143.355 Y86.215 E1.98421
G1 X144.332 Y87.049 E2.02693
G1 X144.607 Y87.294 E2.03918
G1 X145.04 Y87.687 E2.05863
G1 X145.286 Y87.917 E2.06983
G1 X146.003 Y88.609 E2.10298
G1 X146.374 Y88.978 E2.12038
G1 X146.841 Y89.457 E2.14263
G1 X147.082 Y89.712 E2.1543
G1 X147.773 Y90.469 E2.18839
G1 X148.089 Y90.826 E2.20425
G1 X148.564 Y91.379 E2.22849
G1 X148.781 Y91.641 E2.23981
G1 X149.497 Y92.534 E2.27788
G1 X149.806 Y92.933 E2.29466
G1 X150.156 Y93.4 E2.31407
G1 X150.337 Y93.648 E2.32429
G1 X150.906 Y94.453 E2.35707
G1 X151.222 Y94.915 E2.37569
G1 X151.542 Y95.397 E2.39493
G1 X151.742 Y95.711 E2.40732
G1 X152.313 Y96.64 E2.44358
G1 X152.557 Y97.05 E2.45945
G1 X152.901 Y97.649 E2.48243
G1 X153.062 Y97.94 E2.49349
G1 X153.528 Y98.815 E2.52646
G1 X153.772 Y99.29 E2.54422
G1 X154.068 Y99.889 E2.56644
G1 X154.22 Y100.211 E2.57829
G1 X154.649 Y101.158 E2.61287
G1 X154.849 Y101.617 E2.62952
G1 X155.112 Y102.249 E2.65229
G1 X155.225 Y102.533 E2.66245
G1 X155.594 Y103.502 E2.69694
G1 X155.761 Y103.962 E2.71322
G1 X155.989 Y104.62 E2.73638
G1 X156.095 Y104.946 E2.74778
G1 X156.463 Y106.139 E2.7893
G1 X156.577 Y106.537 E2.80307
G1 X156.721 Y107.059 E2.82108
G1 X156.809 Y107.398 E2.83273
G1 X157.054 Y108.411 E2.8674
G1 X157.19 Y109.018 E2.88809
G1 X157.301 Y109.549 E2.90613
G1 X157.366 Y109.885 E2.91751
G1 X157.574 Y111.07 E2.95753
G1 X157.646 Y111.537 E2.97324
G1 X157.723 Y112.073 E2.99125
G1 X157.766 Y112.41 E3.00255
G1 X157.898 Y113.594 E3.04218
G1 X157.941 Y114.061 E3.05778
G1 X157.983 Y114.585 E3.07526
G1 X158.005 Y114.932 E3.08682
G1 X158.064 Y116.175 E3.12821
G1 X158.077 Y116.605 E3.14252
G1 X158.086 Y117.172 E3.16138
G1 X158.086 Y117.506 E3.17249
G1 X158.068 Y118.687 E3.21178
G1 X158.055 Y119.099 E3.22549
G1 X158.027 Y119.713 E3.24593
G1 X158.005 Y120.061 E3.25753
G1 X157.911 Y121.261 E3.29756
G1 X157.869 Y121.693 E3.312
G1 X157.811 Y122.229 E3.32993
G1 X157.768 Y122.578 E3.34162
G1 X157.624 Y123.602 E3.37602
G1 X157.548 Y124.09 E3.39244
G1 X157.436 Y124.745 E3.41455
G1 X157.368 Y125.102 E3.42663
G1 X157.125 Y126.274 E3.46644
G1 X157.031 Y126.692 E3.48069
G1 X156.888 Y127.29 E3.50114
G1 X156.804 Y127.619 E3.51244
G1 X156.5 Y128.732 E3.55081
G1 X156.372 Y129.168 E3.56593
G1 X156.202 Y129.724 E3.58526
G1 X156.096 Y130.054 E3.59679
G1 X155.723 Y131.145 E3.63514
G1 X155.56 Y131.596 E3.65109
G1 X155.363 Y132.121 E3.66974
G1 X155.231 Y132.455 E3.68169
G1 X154.77 Y133.567 E3.72172
G1 X154.605 Y133.945 E3.73544
G1 X154.373 Y134.461 E3.75426
G1 X154.228 Y134.769 E3.76558
G1 X153.684 Y135.883 E3.80681
G1 X153.468 Y136.304 E3.82255
G1 X153.252 Y136.714 E3.83797
G1 X153.083 Y137.024 E3.84971
G1 X152.552 Y137.958 E3.88544
G1 X152.318 Y138.356 E3.9008
G1 X151.941 Y138.975 E3.92491
G1 X151.762 Y139.258 E3.93604
G1 X151.234 Y140.065 E3.96812
G1 X150.958 Y140.473 E3.9845
G1 X150.531 Y141.084 E4.00929
G1 X150.335 Y141.354 E4.02039
G1 X149.713 Y142.186 E4.05494
G1 X149.344 Y142.664 E4.07503
G1 X149.008 Y143.085 E4.09294
G1 X148.785 Y143.355 E4.10459
G1 X147.951 Y144.332 E4.14731
G1 X147.706 Y144.607 E4.15956
G1 X147.313 Y145.04 E4.17901
G1 X147.083 Y145.286 E4.19021
G1 X146.391 Y146.003 E4.22336
G1 X146.022 Y146.374 E4.24076
G1 X145.543 Y146.841 E4.26301
G1 X145.288 Y147.082 E4.27468
G1 X144.531 Y147.773 E4.30877
G1 X144.174 Y148.089 E4.32463
G1 X143.621 Y148.564 E4.34887
G1 X143.359 Y148.781 E4.36019
G1 X142.466 Y149.497 E4.39826
G1 X142.067 Y149.806 E4.41504
G1 X141.6 Y150.156 E4.43445
G1 X141.352 Y150.337 E4.44467
G1 X140.547 Y150.906 E4.47745
G1 X140.085 Y151.222 E4.49607
G1 X139.589 Y151.552 E4.51588
G1 X139.268 Y151.756 E4.52853
G1 X138.354 Y152.317 E4.5642
G1 X137.836 Y152.624 E4.58423
G1 X137.362 Y152.896 E4.60241
G1 X137.05 Y153.068 E4.61426
G1 X136.001 Y153.624 E4.65375
G1 X135.576 Y153.839 E4.66959
G1 X135.102 Y154.072 E4.68715
G1 X134.792 Y154.218 E4.69855
G1 X133.846 Y154.647 E4.7331
G1 X133.383 Y154.849 E4.7499
G1 X132.751 Y155.112 E4.77267
G1 X132.467 Y155.225 E4.78283
G1 X131.498 Y155.594 E4.81732
G1 X131.038 Y155.761 E4.8336
G1 X130.373 Y155.991 E4.857
G1 X130.056 Y156.094 E4.86809
G1 X128.861 Y156.463 E4.90968
G1 X128.458 Y156.578 E4.92362
G1 X127.935 Y156.722 E4.94167
G1 X127.603 Y156.808 E4.95307
G1 X126.591 Y157.053 E4.9877
G1 X126.138 Y157.156 E5.00316
G1 X125.443 Y157.303 E5.02678
G1 X125.095 Y157.37 E5.03857
G1 X123.93 Y157.574 E5.07791
G1 X123.46 Y157.647 E5.09373
G1 X122.923 Y157.724 E5.11177
G1 X122.59 Y157.766 E5.12293
G1 X121.406 Y157.898 E5.16256
G1 X120.937 Y157.941 E5.17822
G1 X120.412 Y157.983 E5.19574
G1 X120.068 Y158.005 E5.20721
G1 X118.825 Y158.064 E5.24859
G1 X118.394 Y158.077 E5.26294
G1 X117.826 Y158.086 E5.28183
G1 X117.492 Y158.086 E5.29294
G1 X116.313 Y158.068 E5.33216
G1 X115.901 Y158.055 E5.34587
G1 X115.287 Y158.027 E5.36631
G1 X114.939 Y158.005 E5.37791
G1 X113.739 Y157.911 E5.41794
G1 X113.307 Y157.869 E5.43238
G1 X112.771 Y157.811 E5.45031
G1 X112.422 Y157.768 E5.46201
G1 X111.398 Y157.624 E5.4964
G1 X110.91 Y157.548 E5.51283
G1 X110.255 Y157.436 E5.53493
G1 X109.898 Y157.368 E5.54701
G1 X108.726 Y157.125 E5.58682
G1 X108.32 Y157.034 E5.60066
G1 X107.719 Y156.891 E5.62121
G1 X107.37 Y156.802 E5.63319
G1 X106.266 Y156.5 E5.67126
G1 X105.811 Y156.366 E5.68703
G1 X105.272 Y156.201 E5.70578
G1 X104.946 Y156.096 E5.71717
G1 X103.855 Y155.723 E5.75552
G1 X103.4 Y155.558 E5.77162
G1 X102.873 Y155.36 E5.79034
G1 X102.545 Y155.231 E5.80207
G1 X101.622 Y154.85 E5.83528
G1 X101.18 Y154.66 E5.85128
G1 X100.539 Y154.373 E5.87464
G1 X100.231 Y154.228 E5.88596
G1 X99.117 Y153.684 E5.9272
G1 X98.687 Y153.463 E5.94328
G1 X98.276 Y153.246 E5.95873
G1 X97.979 Y153.084 E5.96999
G1 X97.046 Y152.554 E6.00568
G1 X96.644 Y152.318 E6.02118
G1 X96.025 Y151.941 E6.04529
G1 X95.742 Y151.762 E6.05642
G1 X94.935 Y151.234 E6.0885
G1 X94.527 Y150.958 E6.10488
G1 X93.912 Y150.528 E6.12984
G1 X93.646 Y150.335 E6.14077
G1 X92.815 Y149.714 E6.17528
G1 X92.334 Y149.342 E6.1955
G1 X91.912 Y149.005 E6.21346
G1 X91.645 Y148.784 E6.22499
G1 X90.668 Y147.951 E6.26769
G1 X90.392 Y147.705 E6.27999
G1 X89.958 Y147.311 E6.29949
G1 X89.713 Y147.082 E6.31064
G1 X88.997 Y146.391 E6.34374
G1 X88.626 Y146.022 E6.36114
G1 X88.158 Y145.543 E6.38341
G1 X87.916 Y145.286 E6.39515
G1 X87.226 Y144.53 E6.4292
G1 X86.911 Y144.174 E6.44501
G1 X86.436 Y143.621 E6.46925
G1 X86.219 Y143.359 E6.48057
G1 X85.503 Y142.466 E6.51864
G1 X85.194 Y142.067 E6.53542
G1 X84.844 Y141.6 E6.55483
G1 X84.663 Y141.352 E6.56505
G1 X84.094 Y140.547 E6.59783
G1 X83.778 Y140.085 E6.61645
G1 X83.444 Y139.581 E6.63656
G1 X83.244 Y139.268 E6.64891
G1 X82.684 Y138.356 E6.68451
G1 X82.38 Y137.842 E6.70437
G1 X82.107 Y137.367 E6.72259
G1 X81.929 Y137.045 E6.73483
G1 X81.376 Y136.001 E6.77412
G1 X81.161 Y135.576 E6.78997
G1 X80.928 Y135.102 E6.80753
G1 X80.782 Y134.792 E6.81893
G1 X80.353 Y133.846 E6.85348
G1 X80.151 Y133.383 E6.87028
G1 X79.881 Y132.734 E6.89366
G1 X79.766 Y132.445 E6.904
G1 X79.404 Y131.493 E6.93788
G1 X79.239 Y131.038 E6.95398
G1 X79.001 Y130.348 E6.97825
G1 X78.897 Y130.03 E6.98938
G1 X78.597 Y129.061 E7.02312
G1 X78.459 Y128.591 E7.03941
G1 X78.275 Y127.923 E7.06246
G1 X78.191 Y127.6 E7.07356
G1 X77.947 Y126.593 E7.10802
G1 X77.811 Y125.987 E7.12868
G1 X77.697 Y125.443 E7.14716
G1 X77.63 Y125.095 E7.15895
G1 X77.426 Y123.93 E7.19829
G1 X77.354 Y123.463 E7.214
G1 X77.276 Y122.92 E7.23225
G1 X77.232 Y122.58 E7.24365
G1 X77.102 Y121.406 E7.28294
G1 X77.059 Y120.937 E7.2986
G1 X77.017 Y120.412 E7.31612
G1 X76.995 Y120.068 E7.32759
G1 X76.936 Y118.825 E7.36897
G1 X76.923 Y118.395 E7.38328
G1 X76.914 Y117.828 E7.40214
G1 X76.914 Y117.494 E7.41325
G1 X76.932 Y116.313 E7.45254
G1 X76.946 Y115.895 E7.46645
G1 X76.975 Y115.266 E7.48739
G1 X76.996 Y114.923 E7.49882
G1 X77.089 Y113.739 E7.53832
G1 X77.131 Y113.307 E7.55276
G1 X77.189 Y112.771 E7.57069
G1 X77.232 Y112.422 E7.58238
G1 X77.376 Y111.398 E7.61678
G1 X77.452 Y110.91 E7.6332
G1 X77.564 Y110.255 E7.65531
G1 X77.632 Y109.898 E7.66739
G1 X77.875 Y108.726 E7.7072
G1 X77.966 Y108.32 E7.72104
G1 X78.109 Y107.719 E7.74159
G1 X78.198 Y107.37 E7.75357
G1 X78.5 Y106.266 E7.79164
G1 X78.634 Y105.809 E7.80748
G1 X78.804 Y105.254 E7.82678
G1 X78.911 Y104.925 E7.83829
G1 X79.277 Y103.855 E7.8759
G1 X79.44 Y103.404 E7.89185
G1 X79.637 Y102.879 E7.9105
G1 X79.769 Y102.545 E7.92245
G1 X80.23 Y101.433 E7.96249
G1 X80.399 Y101.047 E7.9765
G1 X80.636 Y100.521 E7.99569
G1 X80.776 Y100.223 E8.00664
G1 X81.316 Y99.117 E8.04758
G1 X81.532 Y98.696 E8.06331
G1 X81.748 Y98.286 E8.07873
G1 X81.917 Y97.976 E8.09047
G1 X82.448 Y97.042 E8.1262
G1 X82.682 Y96.644 E8.14156
G1 X83.059 Y96.025 E8.16567
G1 X83.238 Y95.742 E8.1768
G1 X83.766 Y94.935 E8.20888
G1 X84.042 Y94.527 E8.22526
G1 X84.469 Y93.916 E8.25006
G1 X84.665 Y93.646 E8.26115
G1 X85.287 Y92.814 E8.2957
G1 X85.656 Y92.336 E8.31579
G1 X85.992 Y91.915 E8.3337
G1 X86.215 Y91.645 E8.34535
G1 X87.049 Y90.668 E8.38808
G1 X87.294 Y90.393 E8.40032
G1 X87.687 Y89.96 E8.41977
G1 X87.917 Y89.714 E8.43098
G1 X88.609 Y88.997 E8.46412
G1 X88.978 Y88.626 E8.48152
G0 F6000 X89.363 Y88.807
G1 F1200 X89.735 Y88.445 E8.49879
G1 X89.982 Y88.213 E8.51006
G1 X90.739 Y87.522 E8.54415
G1 X91.089 Y87.212 E8.5597
G1 X91.639 Y86.74 E8.5838
G1 X91.892 Y86.53 E8.59474
G1 X92.78 Y85.818 E8.6326
G1 X93.173 Y85.514 E8.64912
G1 X93.64 Y85.164 E8.66853
G1 X93.879 Y84.99 E8.67836
G1 X94.846 Y84.308 E8.71772
G1 X95.241 Y84.041 E8.73358
G1 X95.632 Y83.782 E8.74918
G1 X95.941 Y83.585 E8.76137
G1 X97.014 Y82.928 E8.80321
G1 X97.363 Y82.723 E8.81668
G1 X97.837 Y82.451 E8.83485
G1 X98.138 Y82.285 E8.84628
G1 X99.011 Y81.821 E8.87917
G1 X99.601 Y81.52 E8.9012
G1 X100.075 Y81.287 E8.91876
G1 X100.373 Y81.146 E8.92973
G1 X101.319 Y80.717 E8.96428
G1 X101.776 Y80.518 E8.98086
G1 X102.401 Y80.258 E9.00337
G1 X102.676 Y80.149 E9.01321
G1 X103.645 Y79.78 E9.0477
G1 X104.098 Y79.615 E9.06373
G1 X104.757 Y79.387 E9.08692
G1 X105.062 Y79.288 E9.09759
G1 X106.25 Y78.921 E9.13894
G1 X106.648 Y78.807 E9.15271
G1 X107.171 Y78.663 E9.17076
G1 X107.491 Y78.581 E9.18174
G1 X108.677 Y78.295 E9.22232
G1 X109.095 Y78.202 E9.23656
G1 X109.639 Y78.088 E9.25505
G1 X109.975 Y78.024 E9.26643
G1 X111.132 Y77.821 E9.3055
G1 X111.596 Y77.749 E9.32111
G1 X112.133 Y77.672 E9.33916
G1 X112.455 Y77.631 E9.34995
G1 X113.452 Y77.519 E9.38332
G1 X114.095 Y77.458 E9.40481
G1 X114.62 Y77.416 E9.42232
G1 X114.951 Y77.394 E9.43336
G1 X116.023 Y77.342 E9.46905
G1 X116.612 Y77.323 E9.48865
G1 X117.18 Y77.314 E9.50755
G1 X117.502 Y77.314 E9.51826
G1 X118.676 Y77.332 E9.55731
G1 X119.081 Y77.345 E9.57079
G1 X119.695 Y77.373 E9.59123
G1 X120.03 Y77.394 E9.60239
G1 X121.224 Y77.487 E9.64223
G1 X121.65 Y77.529 E9.65646
G1 X122.186 Y77.587 E9.6744
G1 X122.522 Y77.628 E9.68565
G1 X123.546 Y77.772 E9.72005
G1 X124.027 Y77.847 E9.73624
G1 X124.677 Y77.958 E9.75817
G1 X125.021 Y78.024 E9.76982
G1 X126.188 Y78.265 E9.80945
G1 X126.588 Y78.355 E9.82309
G1 X127.189 Y78.498 E9.84364
G1 X127.525 Y78.584 E9.85517
G1 X128.622 Y78.885 E9.89301
G1 X129.072 Y79.016 E9.9086
G1 X129.611 Y79.181 E9.92735
G1 X129.925 Y79.283 E9.93833
G1 X131.01 Y79.654 E9.97647
G1 X131.459 Y79.816 E9.99234
G1 X131.986 Y80.014 E10.01107
G1 X132.302 Y80.139 E10.02237
G1 X133.225 Y80.52 E10.05558
G1 X133.66 Y80.707 E10.07133
G1 X134.297 Y80.992 E10.09454
G1 X134.593 Y81.131 E10.10542
G1 X135.537 Y81.591 E10.14034
G1 X135.984 Y81.817 E10.157
G1 X136.537 Y82.107 E10.17777
G1 X136.824 Y82.264 E10.18865
G1 X137.757 Y82.794 E10.22434
G1 X138.152 Y83.026 E10.23958
G1 X138.766 Y83.401 E10.26351
G1 X139.039 Y83.573 E10.27424
G1 X139.846 Y84.101 E10.30631
G1 X140.372 Y84.458 E10.32746
G1 X140.854 Y84.796 E10.34704
G1 X141.115 Y84.985 E10.35775
G1 X141.947 Y85.607 E10.39231
G1 X142.307 Y85.885 E10.40743
G1 X142.835 Y86.305 E10.42987
G1 X143.096 Y86.52 E10.44112
G1 X144.067 Y87.349 E10.48358
G1 X144.338 Y87.59 E10.49565
G1 X144.771 Y87.983 E10.5151
G1 X145.008 Y88.205 E10.5259
G1 X145.725 Y88.897 E10.55904
G1 X146.193 Y89.363 E10.58101
G1 X146.555 Y89.735 E10.59827
G1 X146.787 Y89.982 E10.60954
G1 X147.478 Y90.739 E10.64363
G1 X147.788 Y91.089 E10.65918
G1 X148.26 Y91.639 E10.68329
G1 X148.47 Y91.892 E10.69422
G1 X149.182 Y92.78 E10.73208
G1 X149.486 Y93.173 E10.74861
G1 X149.836 Y93.64 E10.76802
G1 X150.01 Y93.879 E10.77785
G1 X150.692 Y94.846 E10.81721
G1 X150.96 Y95.242 E10.83311
G1 X151.209 Y95.618 E10.84811
G1 X151.402 Y95.92 E10.86003
G1 X151.973 Y96.849 E10.8963
G1 X152.213 Y97.253 E10.91193
G1 X152.554 Y97.848 E10.93474
G1 X152.709 Y98.128 E10.94538
G1 X153.175 Y99.003 E10.97835
G1 X153.476 Y99.593 E11.00038
