;FLAVOR:Marlin
;TIME:1436
;Filament used: 0.750863m
;Layer height: 0.2
;MINX:100.204
;MINY:100.204
;MINZ:0.2
;MAXX:134.796
;MAXY:134.796
;MAXZ:22
;Generated with Cura_SteamEngine 4.8.0
M140 S50
M105
M190 S50
M104 S200
M105
M109 S200
M82 ;absolute extrusion mode
; Ender 3 Custom Start G-code
G92 E0 ; Reset Extruder
G28 ; Home all axes
G1 Z2.0 F3000 ; Move Z Axis up little to prevent scratching of Heat Bed
G1 X0.1 Y20 Z0.3 F5000.0 ; Move to start position
G1 X0.1 Y200.0 Z0.3 F1500.0 E15 ; Draw the first line
G1 X0.4 Y200.0 Z0.3 F5000.0 ; Move to side a little
G1 X0.4 Y20 Z0.3 F1500.0 E30 ; Draw the second line
G92 E0 ; Reset Extruder
G1 Z2.0 F3000 ; Move Z Axis up little to prevent scratching of Heat Bed
G1 X5 Y20 Z0.3 F5000.0 ; Move over to prevent blob squish
G92 E0
G92 E0
G1 F2700 E-5
;LAYER_COUNT:110
;LAYER:0
M107
G0 F6000 X105.065 Y105.475 Z0.2
;TYPE:SKIRT
G1 F2700 E0
G1 F1200 X105.494 Y105.047 E0.02016
G1 X105.852 Y104.712 E0.03646
G1 X106.3 Y104.318 E0.05631
G1 X106.679 Y104.005 E0.07265
G1 X107.151 Y103.64 E0.0925
G1 X107.542 Y103.356 E0.10857
G1 X108.037 Y103.02 E0.12847
G1 X108.451 Y102.758 E0.14477
G1 X108.964 Y102.455 E0.16458
G1 X109.396 Y102.218 E0.18097
G1 X109.929 Y101.947 E0.20086
G1 X110.379 Y101.736 E0.21739
G1 X110.927 Y101.5 E0.23723
G1 X111.374 Y101.324 E0.25321
G1 X111.936 Y101.122 E0.27308
G1 X112.409 Y100.969 E0.28961
G1 X112.98 Y100.804 E0.30938
G1 X113.453 Y100.683 E0.32562
G1 X114.038 Y100.553 E0.34555
G1 X114.516 Y100.462 E0.36173
G1 X115.106 Y100.369 E0.3816
G1 X115.601 Y100.307 E0.39819
G1 X116.195 Y100.252 E0.41803
G1 X116.665 Y100.223 E0.43369
G1 X117.261 Y100.204 E0.45353
G1 X117.772 Y100.204 E0.47052
G1 X118.368 Y100.224 E0.49036
G1 X118.837 Y100.254 E0.50599
G1 X119.432 Y100.31 E0.52587
G1 X119.932 Y100.374 E0.54263
G1 X120.52 Y100.468 E0.56244
G1 X121.009 Y100.562 E0.579
G1 X121.593 Y100.694 E0.59891
G1 X122.05 Y100.812 E0.61461
G1 X122.621 Y100.978 E0.63439
G1 X123.094 Y101.132 E0.65093
G1 X123.656 Y101.335 E0.67081
G1 X124.102 Y101.512 E0.68677
G1 X124.65 Y101.749 E0.70663
G1 X125.105 Y101.963 E0.72335
G1 X125.637 Y102.235 E0.74322
G1 X126.068 Y102.473 E0.7596
G1 X126.58 Y102.777 E0.7794
G1 X126.985 Y103.034 E0.79536
G1 X127.479 Y103.37 E0.81523
G1 X127.878 Y103.661 E0.83165
G1 X128.349 Y104.027 E0.85149
G1 X128.722 Y104.336 E0.8676
G1 X129.162 Y104.724 E0.88711
G1 X129.518 Y105.059 E0.90337
G1 X129.94 Y105.481 E0.92322
G1 X130.276 Y105.838 E0.93953
G1 X130.67 Y106.285 E0.95935
G1 X130.983 Y106.663 E0.97567
G1 X131.349 Y107.135 E0.99553
G1 X131.639 Y107.534 E1.01194
G1 X131.975 Y108.029 E1.03184
G1 X132.228 Y108.428 E1.04755
G1 X132.532 Y108.94 E1.06736
G1 X132.778 Y109.387 E1.08433
G1 X133.049 Y109.92 E1.10421
G1 X133.255 Y110.359 E1.12034
G1 X133.492 Y110.907 E1.1402
G1 X133.672 Y111.361 E1.15644
G1 X133.874 Y111.922 E1.17628
G1 X134.026 Y112.39 E1.19264
G1 X134.192 Y112.962 E1.21245
G1 X134.311 Y113.426 E1.22838
G1 X134.442 Y114.009 E1.24826
G1 X134.537 Y114.502 E1.26496
G1 X134.63 Y115.091 E1.28479
G1 X134.691 Y115.577 E1.30108
G1 X134.747 Y116.172 E1.32096
G1 X134.777 Y116.654 E1.33702
G1 X134.796 Y117.25 E1.35685
G1 X134.796 Y117.747 E1.37338
G1 X134.777 Y118.344 E1.39325
G1 X134.748 Y118.815 E1.40895
G1 X134.694 Y119.398 E1.42842
G1 X134.631 Y119.897 E1.44515
G1 X134.536 Y120.498 E1.46539
G1 X134.443 Y120.987 E1.48194
G1 X134.312 Y121.571 E1.50185
G1 X134.191 Y122.041 E1.51799
G1 X134.025 Y122.612 E1.53777
G1 X133.875 Y123.073 E1.55389
G1 X133.673 Y123.635 E1.57376
G1 X133.492 Y124.093 E1.59014
G1 X133.255 Y124.641 E1.60999
G1 X133.051 Y125.075 E1.62594
G1 X132.781 Y125.607 E1.64579
G1 X132.531 Y126.063 E1.66308
G1 X132.226 Y126.576 E1.68293
G1 X131.977 Y126.968 E1.69838
G1 X131.642 Y127.462 E1.71823
G1 X131.35 Y127.864 E1.73476
G1 X130.984 Y128.336 E1.75462
G1 X130.671 Y128.714 E1.77094
G1 X130.277 Y129.161 E1.79076
G1 X129.935 Y129.525 E1.80738
G1 X129.506 Y129.953 E1.82753
G1 X129.148 Y130.288 E1.84384
G1 X128.7 Y130.682 E1.86368
G1 X128.321 Y130.995 E1.88003
G1 X127.849 Y131.36 E1.89987
G1 X127.458 Y131.644 E1.91595
G1 X126.963 Y131.98 E1.93585
G1 X126.549 Y132.242 E1.95214
G1 X126.036 Y132.545 E1.97196
G1 X125.604 Y132.782 E1.98835
G1 X125.071 Y133.053 E2.00823
G1 X124.621 Y133.264 E2.02477
G1 X124.073 Y133.5 E2.04461
G1 X123.626 Y133.676 E2.06059
G1 X123.064 Y133.878 E2.08045
G1 X122.591 Y134.031 E2.09699
G1 X122.02 Y134.196 E2.11675
G1 X121.547 Y134.317 E2.13299
G1 X120.962 Y134.447 E2.15292
G1 X120.484 Y134.538 E2.16911
G1 X119.894 Y134.631 E2.18897
G1 X119.399 Y134.693 E2.20557
G1 X118.805 Y134.748 E2.22541
G1 X118.335 Y134.777 E2.24107
G1 X117.739 Y134.796 E2.2609
G1 X117.228 Y134.796 E2.2779
G1 X116.632 Y134.776 E2.29773
G1 X116.163 Y134.746 E2.31336
G1 X115.568 Y134.69 E2.33324
G1 X115.068 Y134.626 E2.35001
G1 X114.48 Y134.532 E2.36981
G1 X113.991 Y134.438 E2.38637
G1 X113.407 Y134.306 E2.40629
G1 X112.95 Y134.188 E2.42199
G1 X112.379 Y134.022 E2.44176
G1 X111.906 Y133.868 E2.45831
G1 X111.344 Y133.665 E2.47818
G1 X110.898 Y133.488 E2.49414
G1 X110.35 Y133.251 E2.514
G1 X109.895 Y133.037 E2.53072
G1 X109.363 Y132.765 E2.5506
G1 X108.932 Y132.527 E2.56697
G1 X108.42 Y132.223 E2.58678
G1 X108.012 Y131.964 E2.60285
G1 X107.517 Y131.627 E2.62277
G1 X107.121 Y131.338 E2.63907
G1 X106.65 Y130.972 E2.65891
G1 X106.277 Y130.663 E2.67502
G1 X105.837 Y130.275 E2.69453
G1 X105.481 Y129.94 E2.71079
G1 X105.059 Y129.518 E2.73064
G1 X104.723 Y129.161 E2.74695
G1 X104.329 Y128.714 E2.76677
G1 X104.016 Y128.336 E2.78309
G1 X103.65 Y127.864 E2.80296
G1 X103.358 Y127.462 E2.81948
G1 X103.023 Y126.968 E2.83933
G1 X102.774 Y126.576 E2.85478
G1 X102.469 Y126.063 E2.87463
G1 X102.219 Y125.607 E2.89193
G1 X101.949 Y125.075 E2.91177
G1 X101.745 Y124.641 E2.92772
G1 X101.508 Y124.093 E2.94758
G1 X101.327 Y123.635 E2.96396
G1 X101.125 Y123.073 E2.98382
G1 X100.975 Y122.612 E2.99994
G1 X100.809 Y122.041 E3.01972
G1 X100.688 Y121.571 E3.03586
G1 X100.557 Y120.987 E3.05577
G1 X100.463 Y120.497 E3.07236
G1 X100.37 Y119.908 E3.0922
G1 X100.309 Y119.422 E3.10849
G1 X100.253 Y118.827 E3.12837
G1 X100.223 Y118.345 E3.14443
G1 X100.204 Y117.75 E3.16423
G1 X100.204 Y117.253 E3.18076
G1 X100.223 Y116.656 E3.20063
G1 X100.253 Y116.173 E3.21672
G1 X100.309 Y115.578 E3.2366
G1 X100.37 Y115.092 E3.25289
G1 X100.463 Y114.503 E3.27272
G1 X100.557 Y114.013 E3.28932
G1 X100.688 Y113.429 E3.30922
G1 X100.809 Y112.959 E3.32537
G1 X100.975 Y112.388 E3.34514
G1 X101.125 Y111.927 E3.36127
G1 X101.327 Y111.365 E3.38113
G1 X101.508 Y110.907 E3.39751
G1 X101.745 Y110.359 E3.41737
G1 X101.949 Y109.925 E3.43332
G1 X102.219 Y109.393 E3.45316
G1 X102.469 Y108.937 E3.47046
G1 X102.774 Y108.424 E3.49031
G1 X103.023 Y108.032 E3.50575
G1 X103.358 Y107.538 E3.52561
G1 X103.65 Y107.136 E3.54213
G1 X104.016 Y106.664 E3.562
G1 X104.329 Y106.286 E3.57832
G1 X104.723 Y105.839 E3.59814
G1 X105.065 Y105.475 E3.61475
G0 F6000 X105.348 Y105.758
G1 F1200 X105.777 Y105.33 E3.63491
G1 X106.116 Y105.012 E3.65036
G1 X106.564 Y104.618 E3.67021
G1 X106.924 Y104.321 E3.68573
G1 X107.396 Y103.956 E3.70558
G1 X107.767 Y103.687 E3.72082
G1 X108.262 Y103.351 E3.74072
G1 X108.655 Y103.102 E3.75619
G1 X109.168 Y102.799 E3.77601
G1 X109.577 Y102.575 E3.79152
G1 X110.11 Y102.304 E3.8114
G1 X110.537 Y102.103 E3.8271
G1 X111.085 Y101.867 E3.84695
G1 X111.509 Y101.7 E3.8621
G1 X112.071 Y101.498 E3.88197
G1 X112.52 Y101.353 E3.89766
G1 X113.091 Y101.188 E3.91743
G1 X113.54 Y101.073 E3.93284
G1 X114.125 Y100.943 E3.95277
G1 X114.578 Y100.857 E3.96811
G1 X115.168 Y100.764 E3.98798
G1 X115.638 Y100.706 E4.00373
G1 X116.232 Y100.651 E4.02357
G1 X116.678 Y100.623 E4.03843
G1 X117.274 Y100.604 E4.05826
G1 X117.758 Y100.604 E4.07436
G1 X118.354 Y100.624 E4.0942
G1 X118.799 Y100.653 E4.10903
G1 X119.394 Y100.709 E4.12891
G1 X119.869 Y100.769 E4.14483
G1 X120.457 Y100.863 E4.16464
G1 X120.92 Y100.952 E4.18032
G1 X121.504 Y101.084 E4.20023
G1 X121.939 Y101.196 E4.21517
G1 X122.51 Y101.362 E4.23495
G1 X122.958 Y101.508 E4.25062
G1 X123.52 Y101.711 E4.27049
G1 X123.943 Y101.879 E4.28563
G1 X124.491 Y102.116 E4.30549
G1 X124.923 Y102.319 E4.32137
G1 X125.455 Y102.591 E4.34124
G1 X125.864 Y102.817 E4.35678
G1 X126.376 Y103.121 E4.37659
G1 X126.76 Y103.365 E4.39172
G1 X127.254 Y103.701 E4.41159
G1 X127.633 Y103.977 E4.42718
G1 X128.104 Y104.343 E4.44702
G1 X128.457 Y104.636 E4.46228
G1 X128.897 Y105.024 E4.48179
G1 X129.236 Y105.341 E4.49723
G1 X129.658 Y105.763 E4.51708
G1 X129.976 Y106.103 E4.53256
G1 X130.37 Y106.55 E4.55238
G1 X130.667 Y106.908 E4.56785
G1 X131.033 Y107.38 E4.58772
G1 X131.308 Y107.759 E4.60329
G1 X131.644 Y108.254 E4.62319
G1 X131.884 Y108.632 E4.63808
G1 X132.188 Y109.144 E4.65789
G1 X132.421 Y109.568 E4.67398
G1 X132.692 Y110.101 E4.69387
G1 X132.888 Y110.518 E4.70919
G1 X133.125 Y111.066 E4.72905
G1 X133.295 Y111.496 E4.74443
G1 X133.497 Y112.057 E4.76426
G1 X133.642 Y112.502 E4.77983
G1 X133.808 Y113.074 E4.79964
G1 X133.921 Y113.514 E4.81475
G1 X134.052 Y114.097 E4.83462
G1 X134.141 Y114.565 E4.85046
G1 X134.234 Y115.154 E4.8703
G1 X134.292 Y115.615 E4.88575
G1 X134.348 Y116.21 E4.90563
G1 X134.377 Y116.667 E4.92086
G1 X134.396 Y117.263 E4.94069
G1 X134.396 Y117.734 E4.95636
G1 X134.377 Y118.331 E4.97622
G1 X134.349 Y118.778 E4.99112
G1 X134.295 Y119.361 E5.01059
G1 X134.236 Y119.834 E5.02645
G1 X134.141 Y120.435 E5.04669
G1 X134.053 Y120.9 E5.06243
G1 X133.922 Y121.484 E5.08233
G1 X133.807 Y121.93 E5.09765
G1 X133.641 Y122.501 E5.11743
G1 X133.499 Y122.938 E5.13271
G1 X133.297 Y123.5 E5.15258
G1 X133.125 Y123.934 E5.1681
G1 X132.888 Y124.482 E5.18796
G1 X132.695 Y124.894 E5.20309
G1 X132.425 Y125.426 E5.22294
G1 X132.187 Y125.859 E5.23937
G1 X131.882 Y126.372 E5.25922
G1 X131.646 Y126.743 E5.27384
G1 X131.311 Y127.237 E5.2937
G1 X131.034 Y127.619 E5.30939
G1 X130.668 Y128.091 E5.32926
G1 X130.371 Y128.449 E5.34473
G1 X129.977 Y128.896 E5.36455
G1 X129.652 Y129.242 E5.38033
G1 X129.223 Y129.67 E5.40049
G1 X128.884 Y129.988 E5.41595
G1 X128.436 Y130.382 E5.43579
G1 X128.076 Y130.679 E5.45131
G1 X127.604 Y131.044 E5.47116
G1 X127.233 Y131.313 E5.4864
G1 X126.738 Y131.649 E5.5063
G1 X126.345 Y131.898 E5.52177
G1 X125.832 Y132.201 E5.54159
G1 X125.423 Y132.425 E5.5571
G1 X124.89 Y132.696 E5.57699
G1 X124.463 Y132.897 E5.59269
G1 X123.915 Y133.133 E5.61253
G1 X123.491 Y133.3 E5.62769
G1 X122.929 Y133.502 E5.64755
G1 X122.48 Y133.647 E5.66324
G1 X121.909 Y133.812 E5.68301
G1 X121.46 Y133.927 E5.69843
G1 X120.875 Y134.057 E5.71836
G1 X120.422 Y134.143 E5.7337
G1 X119.832 Y134.236 E5.75356
G1 X119.362 Y134.294 E5.76931
G1 X118.768 Y134.349 E5.78915
G1 X118.322 Y134.377 E5.80402
G1 X117.726 Y134.396 E5.82385
G1 X117.242 Y134.396 E5.83995
G1 X116.646 Y134.376 E5.85978
G1 X116.201 Y134.347 E5.87461
G1 X115.606 Y134.291 E5.89449
G1 X115.131 Y134.231 E5.91041
G1 X114.543 Y134.137 E5.93022
G1 X114.08 Y134.048 E5.9459
G1 X113.496 Y133.916 E5.96582
G1 X113.061 Y133.804 E5.98076
G1 X112.49 Y133.638 E6.00053
G1 X112.042 Y133.492 E6.0162
G1 X111.48 Y133.289 E6.03608
G1 X111.057 Y133.121 E6.05122
G1 X110.509 Y132.884 E6.07108
G1 X110.077 Y132.681 E6.08695
G1 X109.545 Y132.409 E6.10682
G1 X109.136 Y132.183 E6.12237
G1 X108.624 Y131.879 E6.14217
G1 X108.238 Y131.633 E6.15739
G1 X107.743 Y131.296 E6.17731
G1 X107.366 Y131.022 E6.19281
G1 X106.895 Y130.656 E6.21265
G1 X106.542 Y130.363 E6.22791
G1 X106.102 Y129.975 E6.24742
G1 X105.763 Y129.658 E6.26286
G1 X105.341 Y129.236 E6.28271
G1 X105.023 Y128.896 E6.29819
G1 X104.629 Y128.449 E6.31801
G1 X104.332 Y128.091 E6.33348
G1 X103.966 Y127.619 E6.35335
G1 X103.689 Y127.237 E6.36904
G1 X103.354 Y126.743 E6.38889
G1 X103.118 Y126.372 E6.40352
G1 X102.813 Y125.859 E6.42337
G1 X102.575 Y125.426 E6.4398
G1 X102.305 Y124.894 E6.45964
G1 X102.112 Y124.482 E6.47478
G1 X101.875 Y123.934 E6.49464
G1 X101.703 Y123.5 E6.51016
G1 X101.501 Y122.938 E6.53003
G1 X101.359 Y122.501 E6.54531
G1 X101.193 Y121.93 E6.56509
G1 X101.078 Y121.484 E6.58041
G1 X100.947 Y120.9 E6.60031
G1 X100.859 Y120.434 E6.61608
G1 X100.766 Y119.845 E6.63592
G1 X100.708 Y119.384 E6.65137
G1 X100.652 Y118.789 E6.67125
G1 X100.623 Y118.332 E6.68648
G1 X100.604 Y117.737 E6.70628
G1 X100.604 Y117.266 E6.72194
G1 X100.623 Y116.669 E6.74181
G1 X100.652 Y116.211 E6.75707
G1 X100.708 Y115.616 E6.77695
G1 X100.766 Y115.155 E6.79241
G1 X100.859 Y114.566 E6.81224
G1 X100.947 Y114.1 E6.82801
G1 X101.078 Y113.516 E6.84792
G1 X101.193 Y113.07 E6.86324
G1 X101.359 Y112.499 E6.88302
G1 X101.501 Y112.062 E6.8983
G1 X101.703 Y111.5 E6.91816
G1 X101.875 Y111.066 E6.93369
G1 X102.112 Y110.518 E6.95355
G1 X102.305 Y110.106 E6.96868
G1 X102.575 Y109.574 E6.98852
G1 X102.813 Y109.141 E7.00496
G1 X103.118 Y108.628 E7.02481
G1 X103.354 Y108.257 E7.03943
G1 X103.689 Y107.763 E7.05928
G1 X103.966 Y107.381 E7.07498
G1 X104.332 Y106.909 E7.09484
G1 X104.629 Y106.551 E7.11031
G1 X105.023 Y106.104 E7.13013
G1 X105.348 Y105.758 E7.14592
G0 F6000 X105.63 Y106.041
G1 F1200 X106.059 Y105.613 E7.16608
G1 X106.38 Y105.313 E7.18069
G1 X106.828 Y104.919 E7.20053
G1 X107.169 Y104.638 E7.21523
G1 X107.641 Y104.273 E7.23507
G1 X107.992 Y104.018 E7.2495
G1 X108.487 Y103.682 E7.2694
G1 X108.858 Y103.447 E7.28401
G1 X109.371 Y103.144 E7.30382
G1 X109.758 Y102.931 E7.31852
G1 X110.291 Y102.66 E7.3384
G1 X110.695 Y102.471 E7.35324
G1 X111.243 Y102.235 E7.37308
G1 X111.644 Y102.077 E7.38742
G1 X112.206 Y101.875 E7.40728
G1 X112.631 Y101.737 E7.42214
G1 X113.202 Y101.572 E7.44191
G1 X113.626 Y101.464 E7.45647
G1 X114.211 Y101.334 E7.4764
G1 X114.64 Y101.252 E7.49092
G1 X115.23 Y101.159 E7.51079
G1 X115.675 Y101.104 E7.5257
G1 X116.269 Y101.049 E7.54554
G1 X116.691 Y101.023 E7.55961
G1 X117.287 Y101.004 E7.57944
G1 X117.745 Y101.004 E7.59467
G1 X118.341 Y101.024 E7.61451
G1 X118.762 Y101.051 E7.62854
G1 X119.357 Y101.107 E7.64842
G1 X119.806 Y101.164 E7.66347
G1 X120.394 Y101.258 E7.68328
G1 X120.832 Y101.342 E7.69811
G1 X121.416 Y101.474 E7.71802
G1 X121.827 Y101.58 E7.73214
G1 X122.398 Y101.746 E7.75192
G1 X122.822 Y101.884 E7.76675
G1 X123.384 Y102.087 E7.78662
G1 X123.785 Y102.246 E7.80097
G1 X124.333 Y102.483 E7.82083
G1 X124.741 Y102.675 E7.83583
G1 X125.273 Y102.947 E7.8557
G1 X125.66 Y103.161 E7.87041
G1 X126.172 Y103.465 E7.89021
G1 X126.535 Y103.696 E7.90452
G1 X127.029 Y104.032 E7.92439
G1 X127.387 Y104.293 E7.93913
G1 X127.858 Y104.659 E7.95897
G1 X128.193 Y104.936 E7.97343
G1 X128.633 Y105.324 E7.99294
G1 X128.953 Y105.624 E8.00753
G1 X129.375 Y106.046 E8.02738
G1 X129.676 Y106.367 E8.04201
G1 X130.07 Y106.814 E8.06183
G1 X130.351 Y107.154 E8.0765
G1 X130.717 Y107.626 E8.09637
G1 X130.977 Y107.984 E8.11108
G1 X131.313 Y108.479 E8.13098
G1 X131.54 Y108.836 E8.14505
G1 X131.844 Y109.348 E8.16486
G1 X132.065 Y109.749 E8.18009
G1 X132.336 Y110.282 E8.19997
G1 X132.521 Y110.676 E8.21445
G1 X132.758 Y111.224 E8.23431
G1 X132.919 Y111.632 E8.2489
G1 X133.121 Y112.193 E8.26873
G1 X133.258 Y112.613 E8.28342
G1 X133.424 Y113.185 E8.30323
G1 X133.531 Y113.601 E8.31752
G1 X133.662 Y114.184 E8.33739
G1 X133.746 Y114.627 E8.35239
G1 X133.839 Y115.216 E8.37222
G1 X133.894 Y115.652 E8.38684
G1 X133.95 Y116.247 E8.40672
G1 X133.977 Y116.68 E8.42115
G1 X133.996 Y117.276 E8.44098
G1 X133.996 Y117.722 E8.45581
G1 X133.977 Y118.319 E8.47568
G1 X133.951 Y118.742 E8.48977
G1 X133.897 Y119.325 E8.50925
G1 X133.841 Y119.772 E8.52423
G1 X133.746 Y120.373 E8.54447
G1 X133.662 Y120.812 E8.55934
G1 X133.531 Y121.396 E8.57924
G1 X133.423 Y121.818 E8.59373
G1 X133.257 Y122.389 E8.61351
G1 X133.122 Y122.803 E8.62799
G1 X132.92 Y123.365 E8.64785
G1 X132.758 Y123.776 E8.66255
G1 X132.521 Y124.324 E8.68241
G1 X132.338 Y124.713 E8.6967
G1 X132.068 Y125.245 E8.71655
G1 X131.843 Y125.654 E8.73207
G1 X131.538 Y126.167 E8.75192
G1 X131.314 Y126.519 E8.7658
G1 X130.979 Y127.013 E8.78565
G1 X130.718 Y127.373 E8.80044
G1 X130.352 Y127.845 E8.82031
G1 X130.071 Y128.185 E8.83498
G1 X129.677 Y128.632 E8.8548
G1 X129.37 Y128.959 E8.86971
G1 X128.941 Y129.387 E8.88987
G1 X128.62 Y129.687 E8.90448
G1 X128.172 Y130.081 E8.92433
G1 X127.831 Y130.362 E8.93902
G1 X127.359 Y130.727 E8.95887
G1 X127.008 Y130.982 E8.9733
